!!!COM: Anon.
!!!OCL: Francis James Child
!!!OPR: The English and Scottish Popular Ballads
!!!OVM: Vol. 1
!!!ONB: Ballad No. 13, Tune No. 2
!!!ONM: No. 13
!!!PDT: 1882
!!!YEM: Public domain.
**kern
*M4/4
{8f
8g
=1
4a
4a
4a
8g
8f
=2
4g
8g
8f
2.d}
8r
!! Second phrase:
=3
{4cc
4cc
4dd
4cc
=4
2a
2a
=5
2.a}
!! Third phrase:
{4cc
=6
8dd
8cc
4dd
4d
8f
8f
=7
8g
8f
4g
8a;}
8r
!! Fourth phrase:
{8f
8g
=8
4a
4a
4a
8g
8f
=9
2g
2a
=10
[2cc
8cc]}
8r
!! Fifth phrase:
{4c
=11
4d
4f
4g
8g
8f
=12
2.d;}
====
*-
!!!OCY: Britain; England
!!!PPP: Boston
!!!ODT: <1882
!!!AFR: folk song
!!!AST: monophony
!!!AMT: simple quadruple
!!!SCA: Child Collection
!!!AIN: vox
!!!EEV: 1.0
!!!RDT: 1987 June
!!!YER: 1994 August 10
!!!VTS: 652652838
